Numix-Circle/48x48/apps/mansa.svg

<svg xmlns="http://www.w3.org/2000/svg" xmlns:xlink="http://www.w3.org/1999/xlink" width="48" viewBox="0 0 13.546667 13.546667" height="48">
 <defs>
  <linearGradient id="0" gradientUnits="userSpaceOnUse" x2="0" gradientTransform="matrix(1.10525,0,0,1.10525,-134.27874,-295.76183)" y1="279.1" y2="268.33">
   <stop stop-color="#ae2434"/>
   <stop stop-color="#d67038" offset="1"/>
  </linearGradient>
  <linearGradient xlink:href="#0" id="1" gradientUnits="userSpaceOnUse" gradientTransform="matrix(1.09524,0,0,1.09524,-133.00161,-293.02254)" y1="279.1" x2="0" y2="268.33"/>
 </defs>
 <rect height="12.982" rx="6.491" y="0.282" x="0.282" width="12.982" opacity="0.5" fill="#ffffff" fill-rule="evenodd"/>
 <rect height="11.746" rx="5.873" y="0.9" x="0.9" width="11.746" fill="url(#1)" fill-rule="evenodd"/>
 <path d="M 14.75 13.09375 C 14.357295 13.09375 14.000039 13.52125 14 13.96875 L 14 19 L 17.75 19 L 17.75 17 L 19.25 17 L 19.25 19 L 23.25 19 L 23.25 16 L 24.75 16 L 24.75 19 L 28.75 19 L 28.75 17 L 30.25 17 L 30.25 19 L 34 19 L 34 13.96875 C 33.999965 13.52095 33.642669 13.09385 33.25 13.09375 L 14.75 13.09375 z " transform="scale(0.28222223,0.28222223)" fill="#bca5a6"/>
 <path d="M 12.8125 15 C 12.371004 15.044001 11.997874 15.4512 12 15.875 L 12 32.125 C 12.00005 32.575397 12.435026 32.999897 12.90625 33 L 35.09375 33 C 35.564973 32.999897 35.999965 32.575198 36 32.125 L 36 17.875 C 36 17.4247 35.565009 17.03125 35.09375 17.03125 L 30.25 17.03125 L 30.25 20.09375 C 31.258354 20.287 32 20.830887 32 21.5 C 32 22.169115 31.258354 22.713 30.25 22.90625 L 30.25 31 L 28.75 31 L 28.75 22.90625 C 27.741646 22.713 27 22.169115 27 21.5 C 27 20.830887 27.741646 20.287 28.75 20.09375 L 28.75 17.03125 L 25.96875 17.03125 L 25.96875 15.875 C 25.96875 15.4246 25.533406 15 25.0625 15 L 12.90625 15 L 12.8125 15 z M 23.25 16 L 24.75 16 L 24.75 27.09375 C 25.758354 27.287 26.5 27.830886 26.5 28.5 C 26.5 29.169115 25.758354 29.713 24.75 29.90625 L 24.75 32 L 23.25 32 L 23.25 29.90625 C 22.241646 29.713 21.5 29.169115 21.5 28.5 C 21.5 27.830886 22.241646 27.287 23.25 27.09375 L 23.25 16 z M 17.75 17 L 19.25 17 L 19.25 20.09375 C 20.258354 20.287 21 20.830887 21 21.5 C 21 22.169115 20.258354 22.713 19.25 22.90625 L 19.25 31 L 17.75 31 L 17.75 22.90625 C 16.741646 22.713 16 22.169115 16 21.5 C 16 20.830887 16.741646 20.287 17.75 20.09375 L 17.75 17 z " transform="scale(0.28222223,0.28222223)" fill="#ecf0f1"/>
</svg>

<svg viewBox="0 0 48 48"><defs><linearGradient id="1" gradientUnits="userSpaceOnUse" y1="15" x2="0" y2="11" gradientTransform="matrix(15.333333,0,0,11.5,414.99999,-125.5)"><stop/><stop offset="1" stop-opacity="0"/></linearGradient><clipPath id="clipPath-707495161"><g transform="translate(0,-1004.3622)"><path d="m -24 13 c 0 1.105 -0.672 2 -1.5 2 -0.828 0 -1.5 -0.895 -1.5 -2 0 -1.105 0.672 -2 1.5 -2 0.828 0 1.5 0.895 1.5 2 z" transform="matrix(15.333333,0,0,11.5,414.99999,878.8622)" fill="#1890d0"/></g></clipPath><clipPath id="clipPath-716737093"><g transform="translate(0,-1004.3622)"><path d="m -24 13 c 0 1.105 -0.672 2 -1.5 2 -0.828 0 -1.5 -0.895 -1.5 -2 0 -1.105 0.672 -2 1.5 -2 0.828 0 1.5 0.895 1.5 2 z" transform="matrix(15.333333,0,0,11.5,414.99999,878.8622)" fill="#1890d0"/></g></clipPath></defs><g><g transform="translate(0,-1004.3622)"><path d="m 25 1006.36 c -12.703 0 -23 10.298 -23 23 0 6.367 2.601 12.12 6.781 16.281 4.085 3.712 9.514 5.969 15.469 5.969 12.703 0 23 -10.297 23 -23 0 -5.954 -2.256 -11.384 -5.969 -15.469 -4.165 -4.181 -9.914 -6.781 -16.281 -6.781 z m 16.281 6.781 c 3.854 4.113 6.219 9.637 6.219 15.719 0 12.703 -10.297 23 -23 23 -6.081 0 -11.606 -2.364 -15.719 -6.219 4.16 4.144 9.883 6.719 16.219 6.719 12.703 0 23 -10.297 23 -23 0 -6.335 -2.575 -12.06 -6.719 -16.219 z" opacity="0.05"/><path d="m 41.28 1013.14 c 3.712 4.085 5.969 9.514 5.969 15.469 0 12.703 -10.297 23 -23 23 -5.954 0 -11.384 -2.256 -15.469 -5.969 4.113 3.854 9.637 6.219 15.719 6.219 12.703 0 23 -10.297 23 -23 0 -6.081 -2.364 -11.606 -6.219 -15.719 z" opacity="0.1"/><path transform="matrix(15.333333,0,0,11.5,415.24999,879.11222)" d="m -24 13 a 1.5 2 0 1 1 -3 0 1.5 2 0 1 1 3 0 z" opacity="0.2"/></g></g><g><g transform="translate(0,-1004.3622)"><path d="m -24 13 c 0 1.105 -0.672 2 -1.5 2 -0.828 0 -1.5 -0.895 -1.5 -2 0 -1.105 0.672 -2 1.5 -2 0.828 0 1.5 0.895 1.5 2 z" transform="matrix(15.333333,0,0,11.5,414.99999,878.8622)" fill="#c85637"/></g></g><g><path d="m 47 24 c 0 12.703 -10.297 23 -23 23 -12.703 0 -23 -10.297 -23 -23 0 -12.703 10.297 -23 23 -23 12.703 0 23 10.297 23 23 z" opacity="0.15" fill="url(#1)"/></g><g><g clip-path="url(#clipPath-707495161)"><g transform="translate(0,1)"><g opacity="0.1"><!-- color: #c85637 --><g><path d="m 14.75 13.09 c -0.395 0 -0.75 0.43 -0.75 0.875 l 0 5.03 l 3.75 0 l 0 -2 l 1.5 0 l 0 2 l 4 0 l 0 -3 l 1.5 0 l 0 3 l 4 0 l 0 -2 l 1.5 0 l 0 2 l 3.75 0 l 0 -5.03 c 0 -0.449 -0.355 -0.875 -0.75 -0.875 m -18.5 0" fill="#000" stroke="none" fill-rule="nonzero" fill-opacity="1"/><path d="m 12.813 15 c -0.441 0.043 -0.816 0.449 -0.813 0.875 l 0 16.25 c 0 0.449 0.434 0.875 0.906 0.875 l 22.19 0 c 0.469 0 0.906 -0.426 0.906 -0.875 l 0 -14.25 c 0 -0.449 -0.438 -0.844 -0.906 -0.844 l -4.844 0 l 0 3.063 c 1.01 0.191 1.75 0.738 1.75 1.406 c 0 0.668 -0.742 1.215 -1.75 1.406 l 0 8.094 l -1.5 0 l 0 -8.094 c -1.012 -0.191 -1.75 -0.738 -1.75 -1.406 c 0 -0.668 0.738 -1.215 1.75 -1.406 l 0 -3.063 l -2.781 0 l 0 -1.156 c 0 -0.449 -0.438 -0.875 -0.906 -0.875 m -1.816 1 l 1.5 0 l 0 11.09 c 1.012 0.191 1.75 0.738 1.75 1.406 c 0 0.668 -0.742 1.215 -1.75 1.406 l 0 2.094 l -1.5 0 l 0 -2.094 c -1.01 -0.191 -1.75 -0.738 -1.75 -1.406 c 0 -0.668 0.742 -1.215 1.75 -1.406 m -5.5 -10.09 l 1.5 0 l 0 3.094 c 1.012 0.191 1.75 0.738 1.75 1.406 c 0 0.668 -0.742 1.215 -1.75 1.406 l 0 8.094 l -1.5 0 l 0 -8.094 c -1.01 -0.191 -1.75 -0.738 -1.75 -1.406 c 0 -0.668 0.742 -1.215 1.75 -1.406 m 0 -3.094" fill="#000" stroke="none" fill-rule="nonzero" fill-opacity="1"/></g></g></g></g></g><g><g clip-path="url(#clipPath-716737093)"><!-- color: #c85637 --><g><path d="m 14.75 13.09 c -0.395 0 -0.75 0.43 -0.75 0.875 l 0 5.03 l 3.75 0 l 0 -2 l 1.5 0 l 0 2 l 4 0 l 0 -3 l 1.5 0 l 0 3 l 4 0 l 0 -2 l 1.5 0 l 0 2 l 3.75 0 l 0 -5.03 c 0 -0.449 -0.355 -0.875 -0.75 -0.875 m -18.5 0" fill="#bba4a5" stroke="none" fill-rule="nonzero" fill-opacity="1"/><path d="m 12.813 15 c -0.441 0.043 -0.816 0.449 -0.813 0.875 l 0 16.25 c 0 0.449 0.434 0.875 0.906 0.875 l 22.19 0 c 0.469 0 0.906 -0.426 0.906 -0.875 l 0 -14.25 c 0 -0.449 -0.438 -0.844 -0.906 -0.844 l -4.844 0 l 0 3.063 c 1.01 0.191 1.75 0.738 1.75 1.406 c 0 0.668 -0.742 1.215 -1.75 1.406 l 0 8.094 l -1.5 0 l 0 -8.094 c -1.012 -0.191 -1.75 -0.738 -1.75 -1.406 c 0 -0.668 0.738 -1.215 1.75 -1.406 l 0 -3.063 l -2.781 0 l 0 -1.156 c 0 -0.449 -0.438 -0.875 -0.906 -0.875 m -1.816 1 l 1.5 0 l 0 11.09 c 1.012 0.191 1.75 0.738 1.75 1.406 c 0 0.668 -0.742 1.215 -1.75 1.406 l 0 2.094 l -1.5 0 l 0 -2.094 c -1.01 -0.191 -1.75 -0.738 -1.75 -1.406 c 0 -0.668 0.742 -1.215 1.75 -1.406 m -5.5 -10.09 l 1.5 0 l 0 3.094 c 1.012 0.191 1.75 0.738 1.75 1.406 c 0 0.668 -0.742 1.215 -1.75 1.406 l 0 8.094 l -1.5 0 l 0 -8.094 c -1.01 -0.191 -1.75 -0.738 -1.75 -1.406 c 0 -0.668 0.742 -1.215 1.75 -1.406 m 0 -3.094" fill="#eceff1" stroke="none" fill-rule="nonzero" fill-opacity="1"/></g></g></g><g><path d="m 40.03 7.531 c 3.712 4.084 5.969 9.514 5.969 15.469 0 12.703 -10.297 23 -23 23 c -5.954 0 -11.384 -2.256 -15.469 -5.969 4.178 4.291 10.01 6.969 16.469 6.969 c 12.703 0 23 -10.298 23 -23 0 -6.462 -2.677 -12.291 -6.969 -16.469 z" opacity="0.1"/></g></svg>
